static/img/kroki/b7c92c2fd7dbc844c5436a1683eebdda.svg

<?xml version="1.0" encoding="us-ascii" standalone="no"?><svg xmlns="http://www.w3.org/2000/svg" xmlns:xlink="http://www.w3.org/1999/xlink" contentStyleType="text/css" height="374px" preserveAspectRatio="none" style="width:294px;height:374px;" version="1.1" viewBox="0 0 294 374" width="294px" zoomAndPan="magnify"><defs/><g><!--class aws_iam_policy--><g id="elem_aws_iam_policy"><rect codeLine="23" fill="#3D176E" height="39.7891" id="aws_iam_policy" rx="2.5" ry="2.5" style="stroke:#000D19;stroke-width:0.5;" width="173" x="76" y="328.58"/><ellipse cx="91" cy="348.4745" fill="#ADD1B2" rx="11" ry="11" style="stroke:#181818;stroke-width:1.0;"/><path d="M93.9688,354.1152 Q93.3906,354.412 92.75,354.5527 Q92.1094,354.7089 91.4063,354.7089 Q88.9063,354.7089 87.5781,353.0683 Q86.2656,351.412 86.2656,348.287 Q86.2656,345.162 87.5781,343.5058 Q88.9063,341.8495 91.4063,341.8495 Q92.1094,341.8495 92.75,342.0058 Q93.4063,342.162 93.9688,342.4589 L93.9688,345.1777 Q93.3438,344.5995 92.75,344.3339 Q92.1563,344.0527 91.5313,344.0527 Q90.1875,344.0527 89.5,345.1308 Q88.8125,346.1933 88.8125,348.287 Q88.8125,350.3808 89.5,351.4589 Q90.1875,352.5214 91.5313,352.5214 Q92.1563,352.5214 92.75,352.2558 Q93.3438,351.9745 93.9688,351.3964 L93.9688,354.1152 Z " fill="#000000"/><text fill="#D9B8FF" font-family="Helvetica" font-size="17" lengthAdjust="spacing" textLength="131" x="110" y="354.3598">aws_iam_policy</text></g><!--class aws_resource--><g id="elem_aws_resource"><rect codeLine="26" fill="#3D176E" height="39.7891" id="aws_resource" rx="2.5" ry="2.5" style="stroke:#000D19;stroke-width:0.5;" width="155" x="7" y="167.79"/><ellipse cx="22" cy="187.6845" fill="#ADD1B2" rx="11" ry="11" style="stroke:#181818;stroke-width:1.0;"/><path d="M24.9688,193.3252 Q24.3906,193.622 23.75,193.7627 Q23.1094,193.9189 22.4063,193.9189 Q19.9063,193.9189 18.5781,192.2783 Q17.2656,190.622 17.2656,187.497 Q17.2656,184.372 18.5781,182.7158 Q19.9063,181.0595 22.4063,181.0595 Q23.1094,181.0595 23.75,181.2158 Q24.4063,181.372 24.9688,181.6689 L24.9688,184.3877 Q24.3438,183.8095 23.75,183.5439 Q23.1563,183.2627 22.5313,183.2627 Q21.1875,183.2627 20.5,184.3408 Q19.8125,185.4033 19.8125,187.497 Q19.8125,189.5908 20.5,190.6689 Q21.1875,191.7314 22.5313,191.7314 Q23.1563,191.7314 23.75,191.4658 Q24.3438,191.1845 24.9688,190.6064 L24.9688,193.3252 Z " fill="#000000"/><text fill="#D9B8FF" font-family="Helvetica" font-size="17" lengthAdjust="spacing" textLength="113" x="41" y="193.5698">aws_resource</text></g><!--class policy--><g id="elem_policy"><rect codeLine="29" fill="#3D176E" height="39.7891" id="policy" rx="2.5" ry="2.5" style="stroke:#000D19;stroke-width:0.5;" width="90" x="197.5" y="167.79"/><ellipse cx="212.5" cy="187.6845" fill="#ADD1B2" rx="11" ry="11" style="stroke:#181818;stroke-width:1.0;"/><path d="M215.4688,193.3252 Q214.8906,193.622 214.25,193.7627 Q213.6094,193.9189 212.9063,193.9189 Q210.4063,193.9189 209.0781,192.2783 Q207.7656,190.622 207.7656,187.497 Q207.7656,184.372 209.0781,182.7158 Q210.4063,181.0595 212.9063,181.0595 Q213.6094,181.0595 214.25,181.2158 Q214.9063,181.372 215.4688,181.6689 L215.4688,184.3877 Q214.8438,183.8095 214.25,183.5439 Q213.6563,183.2627 213.0313,183.2627 Q211.6875,183.2627 211,184.3408 Q210.3125,185.4033 210.3125,187.497 Q210.3125,189.5908 211,190.6689 Q211.6875,191.7314 213.0313,191.7314 Q213.6563,191.7314 214.25,191.4658 Q214.8438,191.1845 215.4688,190.6064 L215.4688,193.3252 Z " fill="#000000"/><text fill="#D9B8FF" font-family="Helvetica" font-size="17" lengthAdjust="spacing" textLength="48" x="231.5" y="193.5698">policy</text></g><!--class resource--><g id="elem_resource"><rect codeLine="32" fill="#3D176E" height="39.7891" id="resource" rx="2.5" ry="2.5" style="stroke:#000D19;stroke-width:0.5;" width="113" x="106" y="7"/><ellipse cx="121" cy="26.8945" fill="#ADD1B2" rx="11" ry="11" style="stroke:#181818;stroke-width:1.0;"/><path d="M123.9688,32.5352 Q123.3906,32.832 122.75,32.9727 Q122.1094,33.1289 121.4063,33.1289 Q118.9063,33.1289 117.5781,31.4883 Q116.2656,29.832 116.2656,26.707 Q116.2656,23.582 117.5781,21.9258 Q118.9063,20.2695 121.4063,20.2695 Q122.1094,20.2695 122.75,20.4258 Q123.4063,20.582 123.9688,20.8789 L123.9688,23.5977 Q123.3438,23.0195 122.75,22.7539 Q122.1563,22.4727 121.5313,22.4727 Q120.1875,22.4727 119.5,23.5508 Q118.8125,24.6133 118.8125,26.707 Q118.8125,28.8008 119.5,29.8789 Q120.1875,30.9414 121.5313,30.9414 Q122.1563,30.9414 122.75,30.6758 Q123.3438,30.3945 123.9688,29.8164 L123.9688,32.5352 Z " fill="#000000"/><text fill="#D9B8FF" font-family="Helvetica" font-size="17" lengthAdjust="spacing" textLength="71" x="140" y="32.7798">resource</text></g><!--reverse link aws_resource to aws_iam_policy--><g id="link_aws_resource_aws_iam_policy"><path codeLine="35" d="M101.8453,223.9965 C116.8353,254.5165 138.05,297.69 153.06,328.25 " fill="none" id="aws_resource-backto-aws_iam_policy" style="stroke:#FFAF37;stroke-width:2.0;"/><polygon fill="none" points="93.91,207.84,96.4598,226.6416,107.2308,221.3514,93.91,207.84" style="stroke:#FFAF37;stroke-width:2.0;"/></g><!--reverse link policy to aws_iam_policy--><g id="link_policy_aws_iam_policy"><path codeLine="36" d="M224.7496,223.9143 C209.3696,254.4343 187.58,297.69 172.18,328.25 " fill="none" id="policy-backto-aws_iam_policy" style="stroke:#FFAF37;stroke-width:2.0;"/><polygon fill="none" points="232.85,207.84,219.3915,221.2142,230.1077,226.6145,232.85,207.84" style="stroke:#FFAF37;stroke-width:2.0;"/></g><!--reverse link resource to aws_resource--><g id="link_resource_aws_resource"><path codeLine="37" d="M145.1547,63.2065 C130.1647,93.7265 108.95,136.9 93.94,167.46 " fill="none" id="resource-backto-aws_resource" style="stroke:#FFAF37;stroke-width:2.0;"/><polygon fill="none" points="153.09,47.05,139.7692,60.5614,150.5402,65.8516,153.09,47.05" style="stroke:#FFAF37;stroke-width:2.0;"/></g><!--reverse link resource to policy--><g id="link_resource_policy"><path codeLine="38" d="M180.2504,63.1243 C195.6304,93.6443 217.42,136.9 232.82,167.46 " fill="none" id="resource-backto-policy" style="stroke:#FFAF37;stroke-width:2.0;"/><polygon fill="none" points="172.15,47.05,174.8923,65.8245,185.6085,60.4242,172.15,47.05" style="stroke:#FFAF37;stroke-width:2.0;"/></g><!--SRC=[XP3DRi8m48JlUGfBd2CbHIr4weL6gjeBgahlQ1ElmKfYHskdAFrvzpO5AcC7kCvykpExMycHOTFQdZNO54WcCfLKBH0qR46aTxckDR69422cCzzyrCfU1PRG87l2-XsjBC4dthQoh1GQmsuSwm7AQaEwKto_tX8eyskXiWwLrs3CmbgIHMVHASEpOYw4J_fB9rEUpkumm3Hnf0EI90bFCn-v6dNnxdzY9J-GfUxJbjfYK3E8-ACkjXm8fsHmwD4_s_45E9TgmsuTxNNVYHJIYRxQ0jUxWHPG6pV6M2JKjcyn3wx2RCx5R1H-FWT7vV0w1Zkpbj2iMrtBicUVKVJjE8H6TrIYguVaANKoT_yLnx4N4XqsZ7eZaqV9zmuJFm00]--></g></svg>

<svg xmlns="http://www.w3.org/2000/svg" width="294" height="374" viewBox="0 0 294 374"><rect width="173" height="39.789" x="76" y="328.58" fill="#3D176E" rx="2.5" ry="2.5" style="stroke:#000d19;stroke-width:.5"/><circle cx="91" cy="348.474" r="11" fill="#ADD1B2" style="stroke:#181818;stroke-width:1"/><path d="M93.969 354.115q-.578.297-1.219.438-.64.156-1.344.156-2.5 0-3.828-1.64-1.312-1.657-1.312-4.782t1.312-4.781q1.328-1.656 3.828-1.656.703 0 1.344.156.656.156 1.219.453v2.719q-.625-.579-1.219-.844-.594-.281-1.219-.281-1.344 0-2.031 1.078-.687 1.062-.687 3.156t.687 3.172q.688 1.062 2.031 1.062.625 0 1.219-.265.594-.281 1.219-.86z"/><text x="110" y="354.36" fill="#D9B8FF" font-family="Helvetica" font-size="17" textLength="131">aws_iam_policy</text><rect width="155" height="39.789" x="7" y="167.79" fill="#3D176E" rx="2.5" ry="2.5" style="stroke:#000d19;stroke-width:.5"/><circle cx="22" cy="187.685" r="11" fill="#ADD1B2" style="stroke:#181818;stroke-width:1"/><path d="M24.969 193.325q-.578.297-1.219.438-.64.156-1.344.156-2.5 0-3.828-1.64-1.312-1.657-1.312-4.782t1.312-4.781q1.328-1.656 3.828-1.656.703 0 1.344.156.656.156 1.219.453v2.719q-.625-.578-1.219-.844-.594-.281-1.219-.281-1.343 0-2.031 1.078-.687 1.062-.687 3.156t.687 3.172q.688 1.062 2.031 1.062.625 0 1.219-.265.594-.281 1.219-.86z"/><text x="41" y="193.57" fill="#D9B8FF" font-family="Helvetica" font-size="17" textLength="113">aws_resource</text><rect width="90" height="39.789" x="197.5" y="167.79" fill="#3D176E" rx="2.5" ry="2.5" style="stroke:#000d19;stroke-width:.5"/><circle cx="212.5" cy="187.685" r="11" fill="#ADD1B2" style="stroke:#181818;stroke-width:1"/><path d="M215.469 193.325q-.578.297-1.219.438-.64.156-1.344.156-2.5 0-3.828-1.64-1.312-1.657-1.312-4.782t1.312-4.781q1.328-1.656 3.828-1.656.703 0 1.344.156.656.156 1.219.453v2.719q-.625-.578-1.219-.844-.594-.281-1.219-.281-1.344 0-2.031 1.078-.687 1.062-.687 3.156t.687 3.172q.688 1.062 2.031 1.062.625 0 1.219-.265.594-.281 1.219-.86z"/><text x="231.5" y="193.57" fill="#D9B8FF" font-family="Helvetica" font-size="17" textLength="48">policy</text><rect width="113" height="39.789" x="106" y="7" fill="#3D176E" rx="2.5" ry="2.5" style="stroke:#000d19;stroke-width:.5"/><circle cx="121" cy="26.895" r="11" fill="#ADD1B2" style="stroke:#181818;stroke-width:1"/><path d="M123.969 32.535q-.578.297-1.219.438-.64.156-1.344.156-2.5 0-3.828-1.64-1.312-1.657-1.312-4.782t1.312-4.781q1.328-1.656 3.828-1.656.703 0 1.344.156.656.156 1.219.453v2.719q-.625-.578-1.219-.844-.594-.281-1.219-.281-1.344 0-2.031 1.078-.687 1.062-.687 3.156t.687 3.172q.688 1.062 2.031 1.062.625 0 1.219-.265.594-.281 1.219-.86z"/><text x="140" y="32.78" fill="#D9B8FF" font-family="Helvetica" font-size="17" textLength="71">resource</text><path fill="none" d="M101.845 223.997c14.99 30.52 36.205 73.693 51.215 104.253M93.91 207.84l2.55 18.802 10.77-5.29z" style="stroke:#ffaf37;stroke-width:2"/><g fill="none"><path d="M224.75 223.914c-15.38 30.52-37.17 73.776-52.57 104.336" style="stroke:#ffaf37;stroke-width:2"/><path d="m232.85 207.84-13.458 13.374 10.716 5.4z" style="stroke:#ffaf37;stroke-width:2"/></g><path fill="none" d="M145.155 63.207C130.165 93.727 108.95 136.9 93.94 167.46m59.15-120.41-13.32 13.511 10.77 5.29z" style="stroke:#ffaf37;stroke-width:2"/><g fill="none"><path d="M180.25 63.124c15.38 30.52 37.17 73.776 52.57 104.336" style="stroke:#ffaf37;stroke-width:2"/><path d="m172.15 47.05 2.742 18.775 10.716-5.4z" style="stroke:#ffaf37;stroke-width:2"/></g></svg>
